icons/voltage-symbolic.svg

<?xml version="1.0" encoding="UTF-8" standalone="no"?>
<svg height="16px" viewBox="0 0 16 16" width="16px" xmlns="http://www.w3.org/2000/svg" sodipodi:docname="voltage-symbolic.svg" inkscape:version="1.2.1 (9c6d41e410, 2022-07-14)" xmlns:inkscape="http://www.inkscape.org/namespaces/inkscape" xmlns:sodipodi="http://sodipodi.sourceforge.net/DTD/sodipodi-0.dtd" xmlns:svg="http://www.w3.org/2000/svg">
    <sodipodi:namedview pagecolor="#ffffff" bordercolor="#000000" borderopacity="0.25" inkscape:showpageshadow="2" inkscape:pageopacity="0.0" inkscape:pagecheckerboard="0" inkscape:deskcolor="#d1d1d1" showgrid="false" inkscape:zoom="14.75" inkscape:cx="7.9322034" inkscape:cy="8" inkscape:window-width="1280" inkscape:window-height="731" inkscape:window-x="0" inkscape:window-y="0" inkscape:window-maximized="1" inkscape:current-layer="svg5"/>
    <path d="m 4 0.00390625 v 2.99999975 h -1.023438 c -1.09375 0 -1.976562 0.878906 -1.976562 1.972656 v 2.050782 c 0 0.128906 0.011719 0.253906 0.035156 0.375 c -0.023437 0.195312 -0.035156 0.398437 -0.035156 0.601562 c 0 2.769532 2.230469 5 5 5 c 0 1.640625 1.355469 2.996094 3 2.996094 h 2 c 1.09375 0 2 -0.90625 2 -2 h 1 v 2 h 2 v -2 c 0 -1.09375 -0.90625 -2 -2 -2 h -1 c -1.09375 0 -2 0.90625 -2 2 h -2 c -0.5625 0 -1 -0.433594 -1 -0.996094 c 2.769531 0 5 -2.230468 5 -5 c 0 -0.203125 -0.011719 -0.40625 -0.035156 -0.601562 c 0.023437 -0.121094 0.035156 -0.246094 0.035156 -0.375 v -2.050782 c 0 -1.09375 -0.882812 -1.972656 -1.976562 -1.972656 h -1.023438 v -2.99999975 h -2 v 2.99999975 h -2 v -2.99999975 z m 0 0" fill="#2e3434"/>
</svg>

<svg xmlns="http://www.w3.org/2000/svg" width="16" height="16"><path d="M4 .004v3H2.977A1.97 1.97 0 0 0 1 4.977v2.05c0 .13.012.254.035.375A4.99 4.99 0 0 0 6 13.004 3.015 3.015 0 0 0 9 16h2c1.094 0 2-.906 2-2h1v2h2v-2c0-1.094-.906-2-2-2h-1c-1.094 0-2 .906-2 2H9c-.563 0-1-.434-1-.996a4.99 4.99 0 0 0 4.965-5.602A1.97 1.97 0 0 0 13 7.027v-2.05a1.97 1.97 0 0 0-1.977-1.973H10v-3H8v3H6v-3Zm0 0" style="stroke:none;fill-rule:nonzero;fill:#2e3434;fill-opacity:1"/></svg>
